!!!OTL: UNSER ALTER STABSVERWALTER
!!!ARE: Europa, Mitteleuropa, Deutschland, Westfalen, Soest
!!!SCT: E1719
!!!YEM: Copyright 1995, estate of Helmut Schaffrath.
**kern
*ICvox
*Ivox
*M2/4
*k[b-]
*F:
=1
{8cc
8cc
8cc
8ff
=2
8a
8a
8a
8cc}
=3
{8f
8f
8g
8a
=4
4b-
4a}
=5
{8cc
8cc
8cc
8ff
=6
8a
8a
8a
8cc}
=7
{8f
8f
8g
8a
=8
4b-
4a}
=9
{8cc
8cc
8ff
8ff
=10
4dd
4b-}
=11
{8dd
8dd
8ff
8dd
=12
4cc
4a}
=13
{8cc
8b-
8a
8g
=14
8f
16f
16g
8f
8f}
=15
{8g
8b-
8e
8g
=16
4f
4r}
==
!!!AGN: Spott - Lied, Satire
!!!ONB: ESAC (Essen Associative Code) Database: ERK3
!!!AMT: simple duple
!!!AIN: vox
!!!EED: Helmut Schaffrath
!!!EEV: 1.0
*-
